X: 19
T:Tuar Mr Polka No. 1, The
T:Johhny O' Leary's Polka
T:Wallace's Cross
M:2/4
L:1/8
R:Polka
K:D
ef/2e/2 dB|BA B/2c/2d|ef/2e/2 dB|BA A2|!
ef/2e/2 dB|BA B/2c/2d|af/2a/2 gc|1ed d2:|2ed de|!
|:f>g fA|B/2c/2d ef|g>f ga|ba f/2g/2a|!
f>a fA|B/2c/2d ef|af/2a/2 gc|1ed de:|2ed d2|]!
